!!!OTL: 1612. Handwerksburschenlied.
!!!ODT: 1838
!!!ARE: Europa, Mitteleuropa, Deutschland, Helgoland
!!!SCT: E1612
!!!TXL: @@DE
!!!YEM: Copyright 1995, estate of Helmut Schaffrath.
**kern	**text
*ICvox	*
!! Mixed meters:  3/4; 3/8
*M3/4	*
*k[f#]	*
*G:	*
!LO:TX:a:t=Langsam.	!
!LO:TX:a:t=Auf Helgoland 1838 gehört.	!
{8d	Schön
8g	iſt
8a	ſo
=1	=1
(4.b	weit
16ccL	.
16bJ)	.
8aL	und
8gJ	.
=2	=2
8f#	breit
8g	die
8a;}	Welt,
{8d	wo
8cc	wir
8cc	ge-
=3	=3
(8ccL	-we-
8eeJ	.
4dd)	.
4cc	-ſen
=4	=4
(4cc	ſein
16ddqqL	.
16ccqqJ	.
8b)}	.
{8d	die
8g	uns
8a	am
=5	=5
(4.b	lieb-
16ccL	.
16bJ	.
8a)	.
8g	-ſten
=6	=6
8f#	wohl-
8g	-ge-
8a;}	-fällt,
{8dd	das
8dd	iſt
8gg	die
=7	=7
(8eeL	ſchö-
8ccJ)	.
4.a	-ne
8f#	Stadt
=8	=8
(4f#	Wien.
4g)	.
8r}	.
*M3/8	*
{8dd	Ʒum
=9	=9
!LO:TX:a:t=Rasch.	!
8gg	ri-
8g	-tom-
8g	-tom-
=10	=10
16aL	-dai-
16bJ	.
4cc}	-dom,
=11	=11
{8ff#	ri-
8f#	-tom-
8f#	-tom-
=12	=12
16gL	-dai-
16bJ	.
4dd}	-dom,
=13	=13
{8ggL	ri-
8g	-tom-
8gJ	-dom-
=14	=14
16aL	-dai-
16bJ	.
8cc	-dom,
16r}	.
{16a	ʒum
=15	=15
16ff#L	ri-
16eeJ	.
8dd	-tom-
8dd	-dom-
=16	=16
4g	-dom!
8r}	.
==	==
!!!AGN: Staende -, Handwerker -, Gesellen - Lied, Wanderschaft
!!!ONB: ESAC (Essen Associative Code) Database: ERK3
!!!AMT: irregular
!!!AIN: vox
!!!EED: Helmut Schaffrath
!!!EEV: 1.0
!!!GTL: Staendelieder (Berufslieder). 8. Handwerkerlieder.
!!!URL-scan: https://rosdok.uni-rostock.de/mcrviewer/recordIdentifier/rosdok_ppn745177999/iview2/phys_0436.iview2?x=-449.8344612962892&y=298.7749191969633&scale=0.47549036216460333&rotation=0&layout=singlePageLayout
!!!ENC: Anna Maria Matuszewska
!!!EEV: 2025/08/01
*-	*-
